X:20
T:The Maid of the Mill
S:Bacon (MDT)
A:Bampton
O:English
R:Jig
M:6/8
P:A(AB2)4
K:G %Transposed from A
P:A
D | G>FG B>AG | A>Bc d>BG | D>cB c>Bc | A>FD D>EF |
G>FG B>AG | A>Bc d>BG | D>cB A>GF | G3 G2  |]
P:B
B/c/ | d>ed d>fg | c>AB c>dc | A>Bc d>ed | G3 F>ED |
G>FG B>AG | A>Bc d>BG | D>cB A>GF | G3 G2  |]
